X: 33671
T: Rambling Rake, The
R: hornpipe
M: 4/4
K: Aminor
E2|A^G AB cB cd|ef (3edc dB ge|(3dBd ge (3dBd ge|(3dec (3BcA G2 (3E^FG|
A^G AB cB cd|ef (3edc dB ge|dB GB de (3dcB|c2 A2 A2:|:d2|
ef (3edc dB g2|ef (3edc d2 (3gag|^fg af d2 (3gag|^fg af df ga|
.ba g^f ef ga|.ba g^f ef ga|ba ga .ba g^f|ed e^f g2 fg|
ef ec d2 g2|ef ed (3cdc Bc|AB cA g^f ge|(3dec (3BcA G2 (3E^FG|
A^G AB cB cd|ef (3edc dB ge|dB GB de (3dcB|c2 A2 A2:|

